src/img/icon/social/facebook.svg

<svg width="8" height="14" viewBox="0 0 8 14" fill="none" xmlns="http://www.w3.org/2000/svg">
<path d="M6.85532 7.50939L7.22268 5.11896H4.92538V3.56673C4.90898 3.38778 4.93314 3.20743 4.99607 3.03911C5.059 2.87078 5.15908 2.71881 5.28885 2.5945C5.41863 2.4702 5.57475 2.37675 5.74563 2.32112C5.9165 2.2655 6.09773 2.24912 6.27581 2.27321H7.31063V0.234614C6.69788 0.136374 6.07882 0.0827685 5.45831 0.0742188C3.56459 0.0742188 2.32799 1.21769 2.32799 3.2925V5.11896H0.227295V7.50939H2.32799V13.2785H4.91504V7.50939H6.85532Z" fill="#09A5F0"/>
</svg>

<svg xmlns="http://www.w3.org/2000/svg" width="8" height="14" fill="none" viewBox="0 0 8 14"><path fill="#09A5F0" d="m6.855 7.51.368-2.391H4.925V3.567a1.195 1.195 0 0 1 1.35-1.294h1.036V.235a12.816 12.816 0 0 0-1.853-.16c-1.893 0-3.13 1.143-3.13 3.217V5.12h-2.1v2.39h2.1v5.77h2.587v-5.77h1.94Z"/></svg>
